X:1
T:Forester's Hornpipe
L:1/8
M:C|
I:linebreak $
K:D
V:1 treble
V:1
 fg |"D" a^gaf dfbg | a^gaf d2 cd | "A"eAfA eAfA | edcB A2 fg |$
 "D"a^gaf dfbg | a^gaf d2 cd |  "G(Em)"BG GB "A"Adce | "D"f2 d2 d2 :|$
|: cd | "A"edcB AGEG | "D"FAdf a2 fa | "Em"g2 eg "D"f2 df | "E"edcB "A"ABcd |$
 "A"edcB AGEG |  "D"FAdf a2 fa | "G"gfed "A"cABc | "D"d2 f2 d2 :|
